X:1
T:D Major, D minor Samuel Babcock, 1803
T:Isaac Watts, 1709 (Hymn 50, Book 2)    88. 88. (L. M.)
T:Smyrna
T:Transcribed from The Middlesex Harmony, 1803.
%%score [ 1 2 3 ]
L:1/8
Q:1/4=100
M:2/4
K:D
V:1 treble nm="Treble" snm="Tr."
V:2 treble-8 nm="Tenor" snm="T."
V:3 bass nm="Bass" snm="B."
V:1
"^1. Now let the Lord     my   Savior smile, And  show my   name    up     –     on        his       heart,       I   would for–get    my   pains a–" D2 FA | %1
 !fermata!d2 z D | F2 A2 | !fermata!d2 z d | ed cB | A2 Ad | cB A^G | A4 |: dA BG | F3 A | de f2 | %11
"^1. –while, And  in            the  pleasure  lose   the   smart.                  But  O,    it   swells my  sorrows high  To        see  my    blessed      Je–sus"{f} e3 c | %12
 (d A2) G | F2 B2 | AG FE | [DF]4 :|[K:F] z2 A2 | A3 c | c3 A | B2 A2 | A3 F/G/ | A3 A | A3 A | %23
 AG G2 | %24
"^1.   frown;  My spirits sink, my  comforts   die,    And   all   the springs of    life  are  down.                   Yet  why, my  soul,  why these complaints?" A2 z A | %25
 d2 c2 | A2 z A | B2 A2 | A2 z F/G/ | A3 c | A3 d | d2 ^c2 | d4 |:[K:D] z2 D2 | F3 G | A3 z | %36
 F2 GE | F4 | %38
"^1.   Still  while he frowns com–pas–sion  moves;  Still  on his heart he bears his saints,  And  feels     their  sor    –    rows   and  his   love." A2 AG | %39
 F3 f | ed cB | A4 | fd cB | A3 F | G2 G2 | G2 z d | d3 d | fe dB | A2 G2 | F4 :| %50
V:2
"^2. My name is prin–ted on his breast;    His  book  of         life    con    –    tains   my        name;      I'd      rather  have   it     there  im–" D2 FA | %1
 !fermata!d2 z D | F2 A2 | !fermata!d2 z f | gf ed | dc de/f/ | ed cB | A4 |: A2 Bc | d3 f | %10
 fe d2 | %11
"^2. –pressed Than in   the     bright re–cords of      fame.                When the last  fire burns all things here,  Those letters  shall  se – cu – rely"{d} c3 A | %12
 Bc de | f2 g2 | fe dc | d4 :|[K:F] z2 D2 | F3 G | A3 A | d2 ^c2 | d3 A/B/ | c3 c | c3 c | c2 B2 | %24
"^2. stand, And in the  Lamb's fair book appear,    Writ  by   th'e – ter – nal    Father's hand.                   Now shall my min – utes smoothly run," A2 z A | %25
 F2 E2 | D2 z A | d2 ^c2 | d2 z d/e/ | f3 e | d3 G | F2 E2 | D4 |:[K:D] z2 D2 | F3 G | A3 z | %36
 d2 dc | d4 | %38
"^2. While here I     wait  my  Fa    –  ther's   will;     My  rising    and   my    setting   sun    Roll     gent   –   ly     up             and  down the  hill." ed cB | %39
 A3 d | cB A^G | A4 | Ad cB | A3 d | G2 G2 | G2 z G | (F A2) A | (A d2) g | fd e2 | d4 :| %50
V:3
 D,2 F,A, | !fermata!D2 z D, | F,2 A,2 | !fermata!D2 z D | A,2 A,2 | A,2 A,2 | E,2 E,2 | A,4 |: %8
 F,2 G,E, | D,3 D, | D,2 D,2 | A,3 A, | F,2 D,2 | B,2 G,2 | A,2 A,2 | D,4 :|[K:F] z2 D,2 | D,3 C, | %18
 F,3 F, | G,2 A,2 | D,3 F, | F,2 F,2 | F,2 F,2 | C,2 C,2 | F,2 z D, | D,2 A,,2 | D,2 z F, | %27
 G,2 A,2 | D,2 z F,/E,/ | D,3 C, | F,3 G, | A,2 A,,2 | D,4 |:[K:D] z2 D,2 | F,3 G, | A,3 z | %36
 D2 G,A, | D,4 | A,,2 C,C, | D,3 D, | E,2 E,2 | A,,4 | D,2 E,E, | F,2 D,2 | G,2 G,2 | G,2 z G, | %46
 F,2 D,2 | F,2 G,2 | A,2 A,,2 | D,4 :| %50

